website/static/img/dbt-logo-light.svg

<svg fill="none" height="90" viewBox="0 0 248 90" width="248" xmlns="http://www.w3.org/2000/svg"><g fill="#fff"><path d="m154.123 13.9151v61.4376h-12.451v-6.2658c-1.302 2.1971-3.173 3.9873-5.452 5.1266-2.441 1.2206-5.208 1.8716-7.974 1.8716-3.418.0814-6.836-.8951-9.684-2.8481-2.929-1.953-5.208-4.6384-6.673-7.812-1.627-3.6618-2.441-7.5678-2.36-11.5551-.081-3.9874.733-7.8933 2.36-11.4738 1.465-3.0922 3.744-5.7776 6.592-7.6492 2.929-1.8716 6.347-2.7667 9.765-2.6853 2.685 0 5.37.5696 7.73 1.7902 2.279 1.1392 4.15 2.8481 5.452 4.9638v-20.7504zm-14.973 49.3128c1.627-2.1157 2.522-5.2079 2.522-9.1953 0-3.9873-.813-6.9982-2.522-9.1139s-4.395-3.3363-7.161-3.255c-2.767-.1627-5.452 1.0579-7.243 3.1736-1.708 2.1158-2.604 5.1266-2.604 9.0326 0 3.9873.896 7.0796 2.604 9.2767 1.709 2.1971 4.476 3.4177 7.243 3.3363 3.092 0 5.533-1.1392 7.161-3.255z"/><path d="m198.635 34.6656c2.929 1.8716 5.208 4.5569 6.591 7.6491 1.627 3.5805 2.441 7.4865 2.36 11.4738.081 3.9874-.733 7.9747-2.36 11.5552-1.465 3.1736-3.743 5.8589-6.673 7.8119-2.848 1.8716-6.266 2.8481-9.683 2.7667-2.767.0814-5.534-.5696-7.975-1.8716-2.278-1.1392-4.15-2.9294-5.371-5.1266v6.3473h-12.531v-57.2062l12.613-4.1501v25.0633c1.22-2.1971 3.092-3.9873 5.37-5.1266 2.442-1.302 5.127-1.953 7.894-1.8716 3.417-.0814 6.835.8951 9.765 2.6854zm-6.185 28.481c1.709-2.1971 2.523-5.2894 2.523-9.3581 0-3.9059-.814-6.9168-2.523-9.0325-1.709-2.1158-4.069-3.1736-7.161-3.1736-2.766-.1628-5.452 1.0578-7.242 3.2549-1.709 2.1972-2.523 5.208-2.523 9.114 0 3.9873.814 7.0795 2.523 9.1953 1.709 2.1971 4.394 3.4177 7.242 3.2549 2.767.1628 5.452-1.0578 7.161-3.2549z"/><path d="m225 42.4775v16.4376c0 2.3598.651 4.0687 1.791 5.1266 1.302 1.1392 3.01 1.7088 4.801 1.6274 1.383 0 2.848-.2441 4.15-.5696v9.7649c-2.36.8138-4.801 1.2207-7.243 1.1393-5.207 0-9.195-1.4648-11.962-4.3942-2.766-2.9295-4.15-7.0796-4.15-12.4503v-36.0488l12.613-4.0687v13.9963h10.742v9.4395z"/></g><path d="m86.1754 3.74322c2.1157 2.03436 3.4991 4.71971 3.8246 7.64918 0 1.2206-.3255 2.0344-1.0579 3.5805-.7323 1.5461-9.7649 17.17-12.4502 21.4828-1.5461 2.5226-2.3599 5.5335-2.3599 8.4629 0 3.0109.8138 5.9404 2.3599 8.463 2.6853 4.3128 11.7179 20.018 12.4502 21.5641.7324 1.5462 1.0579 2.2785 1.0579 3.4991-.3255 2.9295-1.6275 5.6149-3.7432 7.5679-2.0344 2.1157-4.7197 3.4991-7.5678 3.7432-1.2206 0-2.0344-.3255-3.4991-1.0579-1.4648-.7324-17.4141-9.5208-21.727-12.2061-.3255-.1628-.651-.4069-1.0578-.5697l-21.3201-12.613c.4882 4.0687 2.2785 7.9747 5.2079 10.8228.5697.5696 1.1393 1.0579 1.7903 1.5461-.4883.2441-1.0579.4883-1.5461.8138-4.3129 2.6853-20.0181 11.7179-21.5642 12.4502-1.5461.7324-2.2785 1.0579-3.5805 1.0579-2.92947-.3255-5.61482-1.6275-7.56781-3.7432-2.11573-2.0344-3.499093-4.7197-3.82459-7.6492.0813743-1.2206.406872-2.4412 1.05787-3.4991.73237-1.5461 9.76493-17.2514 12.45023-21.5642 1.5461-2.5226 2.3599-5.4521 2.3599-8.4629 0-3.0109-.8138-5.9404-2.3599-8.463-2.6853-4.4755-11.79924-20.1808-12.45023-21.7269-.650998-1.0579-.9764957-2.2785-1.05787-3.4991.325497-2.92947 1.62749-5.61482 3.74322-7.64918 2.03436-2.11573 4.71971-3.417723 7.64918-3.74322 1.2206.0813743 2.4412.406872 3.5805 1.05787 1.302.56962 12.7757 7.24231 18.8788 10.82283l1.3834.8137c.4882.3255.8951.5696 1.2206.7324l.651.4068 21.7269 12.8572c-.4882-4.8825-3.0108-9.3581-6.9168-12.3689.4883-.2441 1.0579-.4883 1.5461-.8138 4.3129-2.6853 20.0181-11.79924 21.5642-12.45023 1.0579-.650998 2.2785-.9764957 3.5805-1.05787 2.8481.325497 5.5335 1.62749 7.5678 3.74322zm-40.0362 47.03438 4.6384-4.6384c.651-.651.651-1.6274 0-2.2784l-4.6384-4.6384c-.651-.651-1.6274-.651-2.2784 0l-4.6384 4.6384c-.651.651-.651 1.6274 0 2.2784l4.6384 4.6384c.5696.5696 1.6274.5696 2.2784 0z" fill="#ff694a"/><path d="m247.079 71.4637-1.433 4.0327h-.532l-1.433-4.0225v4.0225h-.922v-5.4964h1.147l1.474 4.0839 1.474-4.0839h1.146v5.4964h-.921zm-5.128-.6346h-1.505v4.6673h-.931v-4.6673h-1.515v-.8291h3.951z" fill="#fff"/></svg>

<svg width="248" height="90" viewBox="0 0 248 90" fill="none" xmlns="http://www.w3.org/2000/svg">
<path d="M154.123 13.9151V75.3527H141.672V69.0869C140.37 71.284 138.499 73.0742 136.22 74.2135C133.779 75.4341 131.012 76.0851 128.246 76.0851C124.828 76.1665 121.41 75.19 118.562 73.237C115.633 71.284 113.354 68.5986 111.889 65.425C110.262 61.7632 109.448 57.8572 109.529 53.8699C109.448 49.8825 110.262 45.9766 111.889 42.3961C113.354 39.3039 115.633 36.6185 118.481 34.7469C121.41 32.8753 124.828 31.9802 128.246 32.0616C130.931 32.0616 133.616 32.6312 135.976 33.8518C138.255 34.991 140.126 36.6999 141.428 38.8156V18.0652L154.123 13.9151ZM139.15 63.2279C140.777 61.1122 141.672 58.02 141.672 54.0326C141.672 50.0453 140.859 47.0344 139.15 44.9187C137.441 42.803 134.755 41.5824 131.989 41.6637C129.222 41.501 126.537 42.7216 124.746 44.8373C123.038 46.9531 122.142 49.9639 122.142 53.8699C122.142 57.8572 123.038 60.9495 124.746 63.1466C126.455 65.3437 129.222 66.5643 131.989 66.4829C135.081 66.4829 137.522 65.3437 139.15 63.2279Z" fill="white"/>
<path d="M198.635 34.6656C201.564 36.5372 203.843 39.2225 205.226 42.3147C206.853 45.8952 207.667 49.8012 207.586 53.7885C207.667 57.7759 206.853 61.7632 205.226 65.3437C203.761 68.5173 201.483 71.2026 198.553 73.1556C195.705 75.0272 192.287 76.0037 188.87 75.9223C186.103 76.0037 183.336 75.3527 180.895 74.0507C178.617 72.9115 176.745 71.1213 175.524 68.9241V75.2714H162.993V18.0652L175.606 13.9151V38.9784C176.826 36.7813 178.698 34.9911 180.976 33.8518C183.418 32.5498 186.103 31.8988 188.87 31.9802C192.287 31.8988 195.705 32.8753 198.635 34.6656ZM192.45 63.1466C194.159 60.9495 194.973 57.8572 194.973 53.7885C194.973 49.8826 194.159 46.8717 192.45 44.756C190.741 42.6402 188.381 41.5824 185.289 41.5824C182.523 41.4196 179.837 42.6402 178.047 44.8373C176.338 47.0345 175.524 50.0453 175.524 53.9513C175.524 57.9386 176.338 61.0308 178.047 63.1466C179.756 65.3437 182.441 66.5643 185.289 66.4015C188.056 66.5643 190.741 65.3437 192.45 63.1466Z" fill="white"/>
<path d="M225 42.4775V58.9151C225 61.2749 225.651 62.9838 226.791 64.0417C228.093 65.1809 229.801 65.7505 231.592 65.6691C232.975 65.6691 234.44 65.425 235.742 65.0995V74.8644C233.382 75.6782 230.941 76.0851 228.499 76.0037C223.292 76.0037 219.304 74.5389 216.537 71.6095C213.771 68.68 212.387 64.5299 212.387 59.1592V23.1104L225 19.0417V33.038H235.742V42.4775H225Z" fill="white"/>
<path d="M86.1754 3.74322C88.2911 5.77758 89.6745 8.46293 90 11.3924C90 12.613 89.6745 13.4268 88.9421 14.9729C88.2098 16.519 79.1772 32.1429 76.4919 36.4557C74.9458 38.9783 74.132 41.9892 74.132 44.9186C74.132 47.9295 74.9458 50.859 76.4919 53.3816C79.1772 57.6944 88.2098 73.3996 88.9421 74.9457C89.6745 76.4919 90 77.2242 90 78.4448C89.6745 81.3743 88.3725 84.0597 86.2568 86.0127C84.2224 88.1284 81.5371 89.5118 78.689 89.7559C77.4684 89.7559 76.6546 89.4304 75.1899 88.698C73.7251 87.9656 57.7758 79.1772 53.4629 76.4919C53.1374 76.3291 52.8119 76.085 52.4051 75.9222L31.085 63.3092C31.5732 67.3779 33.3635 71.2839 36.2929 74.132C36.8626 74.7016 37.4322 75.1899 38.0832 75.6781C37.5949 75.9222 37.0253 76.1664 36.5371 76.4919C32.2242 79.1772 16.519 88.2098 14.9729 88.9421C13.4268 89.6745 12.6944 90 11.3924 90C8.46293 89.6745 5.77758 88.3725 3.82459 86.2568C1.70886 84.2224 0.325497 81.5371 0 78.6076C0.0813743 77.387 0.406872 76.1664 1.05787 75.1085C1.79024 73.5624 10.8228 57.8571 13.5081 53.5443C15.0542 51.0217 15.868 48.0922 15.868 45.0814C15.868 42.0705 15.0542 39.141 13.5081 36.6184C10.8228 32.1429 1.70886 16.4376 1.05787 14.8915C0.406872 13.8336 0.0813743 12.613 0 11.3924C0.325497 8.46293 1.62749 5.77758 3.74322 3.74322C5.77758 1.62749 8.46293 0.325497 11.3924 0C12.613 0.0813743 13.8336 0.406872 14.9729 1.05787C16.2749 1.62749 27.7486 8.30018 33.8517 11.8807L35.2351 12.6944C35.7233 13.0199 36.1302 13.264 36.4557 13.4268L37.1067 13.8336L58.8336 26.6908C58.3454 21.8083 55.8228 17.3327 51.9168 14.3219C52.4051 14.0778 52.9747 13.8336 53.4629 13.5081C57.7758 10.8228 73.481 1.70886 75.0271 1.05787C76.085 0.406872 77.3056 0.0813743 78.6076 0C81.4557 0.325497 84.1411 1.62749 86.1754 3.74322ZM46.1392 50.7776L50.7776 46.1392C51.4286 45.4882 51.4286 44.5118 50.7776 43.8608L46.1392 39.2224C45.4882 38.5714 44.5118 38.5714 43.8608 39.2224L39.2224 43.8608C38.5714 44.5118 38.5714 45.4882 39.2224 46.1392L43.8608 50.7776C44.4304 51.3472 45.4882 51.3472 46.1392 50.7776Z" fill="#FF694A"/>
<path d="M247.079 71.4637L245.646 75.4964H245.114L243.681 71.4739V75.4964H242.759V70H243.906L245.38 74.0839L246.854 70H248V75.4964H247.079V71.4637ZM241.951 70.8291H240.446V75.4964H239.515V70.8291H238V70H241.951V70.8291Z" fill="white"/>
</svg>
